dji-master/img/content/contacts/pnone.svg

<svg width="14" height="14" viewBox="0 0 14 14" fill="none" xmlns="http://www.w3.org/2000/svg">
<path fill-rule="evenodd" clip-rule="evenodd" d="M13.2222 9.72222C12.25 9.72222 11.3167 9.56667 10.4456 9.27889C10.3678 9.25556 10.2822 9.24 10.2044 9.24C10.0022 9.24 9.80778 9.31778 9.66 9.46556L7.94889 11.1767C5.74778 10.0567 3.94333 8.26 2.82333 6.05111L4.53444 4.33222C4.74444 4.13 4.80667 3.82667 4.72111 3.55444C4.43333 2.68333 4.27778 1.75 4.27778 0.777778C4.27778 0.35 3.92778 0 3.5 0H0.777778C0.35 0 0 0.35 0 0.777778C0 8.08111 5.91889 14 13.2222 14C13.65 14 14 13.65 14 13.2222V10.5C14 10.0722 13.65 9.72222 13.2222 9.72222ZM1.57865 1.5513H2.74529C2.79973 2.23575 2.9164 2.91241 3.10306 3.56575L2.16975 4.50686C1.85086 3.56575 1.64864 2.57797 1.57865 1.5513ZM12.4447 12.4177C11.4181 12.3477 10.4303 12.1455 9.48919 11.8344L10.4225 10.901C11.0836 11.0877 11.7525 11.2044 12.4369 11.251V12.4177H12.4447Z" fill="white"/>
</svg>

<svg width="14" height="14" fill="none" xmlns="http://www.w3.org/2000/svg"><path fill-rule="evenodd" clip-rule="evenodd" d="M13.222 9.722a8.835 8.835 0 01-2.776-.443.765.765 0 00-.786.187l-1.711 1.71a11.702 11.702 0 01-5.126-5.125l1.711-1.719a.76.76 0 00.187-.778A8.836 8.836 0 014.278.778.78.78 0 003.5 0H.778A.78.78 0 000 .778C0 8.08 5.919 14 13.222 14a.78.78 0 00.778-.778V10.5a.78.78 0 00-.778-.778zM1.58 1.552h1.166c.055.684.171 1.36.358 2.014l-.933.94a11.657 11.657 0 01-.591-2.955zm10.866 10.866a12 12 0 01-2.956-.584l.933-.933c.662.187 1.33.303 2.015.35v1.167h.008z" fill="#fff"/></svg>
